!!!!SEGMENT: pl-gd--ee-2628--005-004_stabile-annibale--il-primo-libro-de-madrigali-a-cinque-voci-fede-al-mondo.krn
!!!cenid: 15xx:1049
!!!COM: Stabile, Annibale
!!!COM-rismid: pe30009662
!!!CDT:
!!!CNT:
!!!GTL: Il primo libro de madrigali a cinque voci
!!!OTL: Fede al mondo
!!!OMV: 004
!!!PDT: 1586
!!!AGN:
!!!SMS-siglum: PL-GD
!!!SMS-shelfmark: Ee 2628
!!!SMS-variant:
!!!SMS-altvar:
!!!SMS-shelfwork: 005-004 G
!!!NIFC-rismid: 990060531
!!!URL-scan: https://repozytorium.nifc.pl/islandora/object/pl-gd%3A66139/datastream/PDF/view
!!!ONB-nifc: UWAGA: Canto: s. 78-89, Tenore: s. 233-245, Basso: s. 390-401, Quinto: s. 712-723. Dla głosu Alto proszę skorzystać z https://pbc.gda.pl/dlibra/doccontent?id=79410, str. 25-48. Uwaga: utwory podzielone wg spisu treści dostępnych na końcu ksiąg – proszę sprawdzać sąsiednie tytuły. Głos Quinto proszę umieszczać wg ambitusu (może się różnić w zależności od utworu).
!!!AIN: 1 alto 1 bass 1 soprn 2 tenor
!!!key: G:mix
**kern	**text	**kern	**text	**kern	**text	**kern	**text	**kern	**text
*part5	*part5	*part4	*part4	*part3	*part3	*part2	*part2	*part1	*part1
*staff5	*staff5	*staff4	*staff4	*staff3	*staff3	*staff2	*staff2	*staff1	*staff1
*I"BASSO	*	*I"TENORE	*	*I"QVINTO	*	*I"ALTO	*	*I"CANTO	*
*I'B	*	*I'T	*	*I'V 5	*	*I'A	*	*I'C	*
*ICvox	*	*ICvox	*	*ICvox	*	*ICvox	*	*Cvox	*
*Ibass	*	*Itenor	*	*Itenor	*	*Ialto	*	*Isoprn	*
*clefF4	*	*clefC4	*	*clefC4	*	*clefC3	*	*clefC1	*
*k[b-]	*	*k[b-]	*	*k[b-]	*	*k[b-]	*	*k[b-]	*
*G:mix	*	*G:mix	*	*G:mix	*	*G:mix	*	*G:mix	*
*M2/1	*	*M2/1	*	*M2/1	*	*M2/1	*	*M2/1	*
*met(c)	*	*met(c)	*	*met(c)	*	*met(c)	*	*met(c)	*
=1-	=1-	=1-	=1-	=1-	=1-	=1-	=1-	=1-	=1-
!LO:TX:a:i:t=Seconda parte.	!	!LO:TX:a:i:t=Seconda parte.	!	!LO:TX:a:i:t=Seconda parte.	!	!LO:TX:a:i:t=Seconda parte.	!	!LO:TX:a:i:t=Seconda parte.	!
00r	.	2r	.	2.d\	FE-	0r	.	0r	.
.	.	2.G/	FE-	.	.	.	.	.	.
.	.	.	.	4e-X\	de al	.	.	.	.
.	.	.	.	2d\	mon-	.	.	.	.
.	.	4B-\	de al	.	.	.	.	.	.
.	.	2A/	mon-	4c\	-do	.	.	.	.
.	.	.	.	4c\	fac-	.	.	.	.
=2-	=2-	=2-	=2-	=2-	=2-	=2-	=2-	=2-	=2-
.	.	4G/	-do	2B-\	-c'io	2r	.	1r	.
.	.	4G/	fac-	.	.	.	.	.	.
.	.	4F#X/	-c'io	4A/	ch'am-	2.d\	FE-	.	.
.	.	4.G/	ch'am-	2B-\	-be	.	.	.	.
.	.	.	.	.	.	.	.	2.g/	FE-
.	.	8G/	-be	.	.	.	.	.	.
.	.	4C/	le	4c\	le	4e-X\	de al	.	.
.	.	2G/	cor-	8B-\	cor-	2d\	mon-	.	.
.	.	.	.	8G/	.	.	.	.	.
.	.	.	.	2g\	.	.	.	4b-\	de al
=3-	=3-	=3-	=3-	=3-	=3-	=3-	=3-	=3-	=3-
2.D/	FE-	4A/	-na	.	.	2.d\	-do	2a\	mon-
.	.	4.A/	ch'am-	4f#X\	-na	.	.	.	.
.	.	.	.	2r	.	.	.	4f#X/	-do
.	.	8A/	-be	.	.	.	.	.	.
4E-X\	de al	4G/	le	.	.	4B-/	fac-	4g/	fac-
!	!	!LO:SIC:v:t=custos F#	!	!	!	!	!	!	!
!	!	!LB	!	!	!	!	!	!	!
2D/	mon-	2F#X/	cor-	4r	.	2d\	-c'io	4a\	-c'io
!	!	!	!	!LO:SIC:v:t=custos d	!	!	!	!	!
!	!	!	!	!LB	!	!	!	!	!
.	.	.	.	2d\	Fe-	.	.	4.dd\	ch'am-
!LO:N:acc=#	!	!	!	!	!	!	!	!	!
4BBn/	-do	2G/	-na	.	.	2r	.	.	.
.	.	.	.	.	.	.	.	8dd\	-be
4C/	fac-	.	.	4e-X\	de al	.	.	4cc\	le
=4-	=4-	=4-	=4-	=4-	=4-	=4-	=4-	=4-	=4-
4GG/	-c'io	2r	.	2d\	mon-	2g\	ch'am-	2b-\	cor-
4.G\	ch'am-	.	.	.	.	.	.	.	.
!	!	!	!	!LO:N:acc=#	!	!	!	!	!
!	!	!	!	!	!	!	!	!LO:SIC:v:t=custos g	!
!	!	!	!	!	!	!	!	!LB	!
.	.	4r	.	4Bn\	-do	4d\	-be	2g/	-na
8G\	-be	.	.	.	.	.	.	.	.
*	*	*	*ij	*	*	*	*	*	*
4C/	le	4.G/	ch'am-	4c\	fac-	4e-X\	le	.	.
!	!	!	!	!	!	!LO:SIC:v:t=custos d	!	!	!
!	!	!	!	!	!	!LB	!	!	!
2G\	cor-	.	.	4d\	-c'io	4.d\	cor-	1r	.
.	.	8G/	-be	.	.	.	.	.	.
.	.	4B-\	le	4.B-y\	ch'am-	.	.	.	.
.	.	.	.	.	.	8e-\	.	.	.
!LO:SIC:v:t=custos F	!	!	!	!	!	!	!	!	!
!LB	!	!	!	!	!	!	!	!	!
2F\	-na	2c\	cor-	.	.	2f\	.	.	.
.	.	.	.	8B-\	-be	.	.	.	.
.	.	.	.	4A/	le	.	.	.	.
=5-	=5-	=5-	=5-	=5-	=5-	=5-	=5-	=5-	=5-
2r	.	2d\	-na	2.B-\	cor-	2f\	-na	2r	.
*	*	*	*Xij	*	*	*	*	*	*
4BB-y/	In	4d\	In	.	.	4f\	In	4b-\	In
4BB-/	quel'-	4d\	quel'-	4F/	-na	4f\	quel'-	4b-\	quel'-
2BB-/	-el-	2d\	-el-	1r	.	2f\	-el-	2b-\	-el-
4FF/	ce vn	4c\	ce vn	.	.	4f\	ce vn	4a\	ce vn
4GG/	mon-	4B-\	mon-	.	.	4d\	mon-	4g/	mon-
=6-	=6-	=6-	=6-	=6-	=6-	=6-	=6-	=6-	=6-
2D/	-ton	2A/	-ton	2r	.	2d\	-ton	2f/	-ton
8BB-/	rup-	2B-\	rup-	4F/	In	4f\	In	4dd\	In
8C/	.	.	.	.	.	.	.	.	.
8D\	.	.	.	4F/	quel'-	2f\	quel'-	4dd\	quel'-
8Eny\	.	.	.	.	.	.	.	.	.
4F\	.	4A/	-pe	2F/	-el-	.	.	2cc\	-el-
!	!	!	!	!	!	!LO:SIC:v:t=custos g	!	!	!
!	!	!	!	!	!	!LB	!	!	!
4FF/	-pe	4f\	In	.	.	4a\	-el	.	.
2r	.	4e\	quel'-	4C/	ce vn	4g\	ce vn	4cc\	ce vn
.	.	4d\	-el-	4D/	mon-	4f\	mon-	4a\	mon-
!	!	!	!	!	!	!	!	!LO:SIC:v:t=custos a	!
!	!	!	!	!	!	!	!	!LB	!
=7-	=7-	=7-	=7-	=7-	=7-	=7-	=7-	=7-	=7-
1r	.	4c\	ce vn	2A/	-ton	2eny\	-ton	2a\	-ton
.	.	4c\	mon-	.	.	.	.	.	.
!	!	!LO:SIC:v:t=custos c	!	!LO:SIC:v:t=custos F	!	!	!	!	!
!	!	!LB	!	!LB	!	!	!	!	!
.	.	4c\	-ton	8F/	rup-	2.f\	rup-	2.a\	rup-
.	.	.	.	8G/	.	.	.	.	.
.	.	8Fny/	rup-	8A\	.	.	.	.	.
.	.	8G/	.	8B-\	.	.	.	.	.
2r	.	8A\	.	4c\	.	.	.	.	.
.	.	8B-\	.	.	.	.	.	.	.
.	.	2c\	.	4C/	-pe	4e\	-pe	4g/	-pe
4r	.	.	.	2r	.	4r	.	2r	.
!LO:SIC:v:t=custos F	!	!	!	!	!	!	!	!	!
!LB	!	!	!	!	!	!	!	!	!
2F\	e	4A/	-pe	.	.	2a\	e	.	.
=8-	=8-	=8-	=8-	=8-	=8-	=8-	=8-	=8-	=8-
.	.	0r	.	2.c\	e	.	.	0r	.
4C/	di	.	.	.	.	4g\	di	.	.
2E-X\	pian-	.	.	.	.	2g\	pian-	.	.
.	.	.	.	4G/	di	.	.	.	.
4D/	-to	.	.	2B-\	pian-	2.f\	-to	.	.
4D/	Fur	.	.	.	.	.	.	.	.
4D/	del-	.	.	4A/	-to	.	.	.	.
4C#X/	-le	.	.	4A/	Fur	4e\	Fur	.	.
=9-	=9-	=9-	=9-	=9-	=9-	=9-	=9-	=9-	=9-
2D/	Nin-	2r	.	4A/	del-	4f#X\	del-	4r	.
.	.	.	.	4B-\	-le	4g\	-le	2dd\	e
2D/	fe i	4r	.	2A/	Nin-	2f#X\	Nin-	.	.
.	.	2d\	e	.	.	.	.	4a\	di
2GG/	pie-	.	.	4G/	-fe	2g\	-fe	2b-\	pian-
.	.	4D/	di	4d\	Fur	.	.	.	.
2AA/	-to-	4F/	pian-	4d\	del-	2r	.	4a\	-to
.	.	4E/	-to	4c#X\	-le	.	.	4a\	Fur
=10-	=10-	=10-	=10-	=10-	=10-	=10-	=10-	=10-	=10-
4FF#X/	ſi oc-	4r	.	4.d\	Nin-	1r	.	4a\	del-
4GG/	-chi	4D/	Fur	.	.	.	.	4b-\	-le
.	.	.	.	8eny\	.	.	.	.	.
!	!	!	!	!LO:SIC:v:t=custos f	!	!	!	!	!
!	!	!	!	!LB	!	!	!	!	!
2AA/	mol-	4D/	del-	4fny\	.	.	.	2a\	Nin-
.	.	4C#X/	-le	4e\	fe i	.	.	.	.
2D/	-li	4D/	Nin-	2d\	pie-	2.fny\	i	2.a\	fe i
.	.	2F/	fe i	.	.	.	.	.	.
2r	.	.	.	2cny\	-to-	.	.	.	.
.	.	4Cny/	pie-	.	.	4e-X\	pie-	4g/	pie-
=11-	=11-	=11-	=11-	=11-	=11-	=11-	=11-	=11-	=11-
0r	.	2E-X/	-to-	4.B-\	ſi oc-	2e-X\	-to-	2g/	-to-
.	.	.	.	8A\	.	.	.	.	.
.	.	4E-/	ſi oc-	4G/	.	4c/	ſi oc-	4g/	ſi oc-
.	.	4D/	-chi	4A/	-chi	4d\	-chi	4f#X/	-chi
!	!	!LO:SIC:v:t=custos C	!	!	!	!LO:SIC:v:t=custos e	!	!	!
!	!	!LB	!	!	!	!LB	!	!	!
.	.	2C/	mol-	2c\	mol-	2en\y	mol-	2g/	mol-
!	!	!	!	!	!	!	!	!	!
.	.	2D/	-li	2A/	-li	2d\	-li	2f#X/	-li
=12-	=12-	=12-	=12-	=12-	=12-	=12-	=12-	=12-	=12-
4G\	Spez-	1r	.	1r	.	4B-/	Spez-	4r	.
!	!	!	!	!	!	!	!	!LO:SIC:v:t=custos b-	!
!	!	!	!	!	!	!	!	!LB	!
2G\	zo' A-	.	.	.	.	2B-/	zo' A-	4b-\	Spez-
.	.	.	.	.	.	.	.	4b-\	zo' A-
4A\	-mor	.	.	.	.	4A/	-mor	4cc\	-mor
!LO:SIC:v:t=custos B-	!	!	!	!	!	!	!	!	!
!LB	!	!	!	!	!	!	!	!	!
2B-\	l'ar-	4d\	Spez-	4B-\	Spez-	2G/	l'ar-	2dd\	l'ar-
.	.	2d\	zo' A-	2B-\	zo' A-	.	.	.	.
2BB-/	-co	.	.	.	.	2F/	-co	2dd\	-co
.	.	4e\	-mor	4c\	-mor	.	.	.	.
=13-	=13-	=13-	=13-	=13-	=13-	=13-	=13-	=13-	=13-
4BB-/	di	2f\	l'ar-	1d	l'ar-	1r	.	4d/	di
4Cny/	bei	.	.	.	.	.	.	4e/	bei
4D/	fio-	2F/	-co	.	.	.	.	4fny/	fio-
4Eny\	ri a-	.	.	.	.	.	.	4g/	ri a-
1F	-dor-	4F/	di	2c\	-co	2r	.	1a	-dor-
.	.	4G/	bei	.	.	.	.	.	.
.	.	4A/	fio-	2r	.	4c/	di	.	.
.	.	4B-\	ri a-	.	.	4d\	bei	.	.
=14-	=14-	=14-	=14-	=14-	=14-	=14-	=14-	=14-	=14-
*	*	*lig	*	*	*	*	*	*	*
1C	-na	1c	-dor-	4C/	di	4e\	fio-	2g/	-na
.	.	.	.	4D/	bei	4f\	ri a-	.	.
.	.	.	.	4E/	fio-	2e\	-dor-	4g/	di
.	.	.	.	4F/	ri a-	.	.	4a\	bei
4GG/	di	1B-	.	2G/	-dor-	2d\	-na	4b-\	fio-
4AA/	bei	.	.	.	.	.	.	4cc\	ri a-
!	!	!	!	!LO:SIC:v:t=custos G	!	!	!	!	!
!	!	!	!	!LB	!	!	!	!	!
4BB-/	fio-	.	.	2G/	-na	4d\	di	2.dd\	-dor-
4C/	ri a-	.	.	.	.	4e\	bei	.	.
*	*	*Xlig	*	*	*	*	*	*	*
=15-	=15-	=15-	=15-	=15-	=15-	=15-	=15-	=15-	=15-
2D/	-dor-	2A/	-na	1r	.	4f#X\	fio-	.	.
.	.	.	.	.	.	4g\	ri a-	8cc\	.
.	.	.	.	.	.	.	.	8b-\	.
2D/	-na	2.d\	Si	.	.	2f#X\	-dor-	2a\	.
!	!	!	!	!	!	!	!	!LO:N:acc=#	!
!	!	!	!	!	!	!	!	!LO:SIC:v:t=custos b	!
!	!	!	!	!	!	!	!	!LB	!
2r	.	.	.	2.G/	Si	2g\	-na	2bn\	-na
.	.	4d\	ſpo-	.	.	.	.	.	.
!	!	!	!	!	!	!LO:SIC:v:t=custos g	!	!	!
!	!	!	!	!	!	!LB	!	!	!
2.G\	Si	2d\	-gliò	.	.	2.g\	Si	2.b\	Si
.	.	.	.	4G/	ſpo-	.	.	.	.
=16-	=16-	=16-	=16-	=16-	=16-	=16-	=16-	=16-	=16-
.	.	0G	Flo-	1d	-gliò	.	.	.	.
4G\	ſpo-	.	.	.	.	4g\	ſpo-	4bny\	ſpo-
2G\	-gliò	.	.	.	.	2g\	-gliò	2b\	-gliò
1C	Flo-	.	.	1e-X	Flo-	1g	Flo-	1.cc	Flo-
=17-	=17-	=17-	=17-	=17-	=17-	=17-	=17-	=17-	=17-
1GG	-ra	1G	-ra	1d	-ra	1g	-ra	.	.
!	!	!	!	!	!	!	!	!LO:N:acc=#	!
.	.	.	.	.	.	.	.	2bn\	-ra
2r	.	2r	.	2r	.	2r	.	2r	.
!LO:SIC:v:t=custos C	!	!	!	!	!	!	!	!	!
!LB	!	!	!	!	!	!	!	!	!
2C/	e	2Eny/	e	2c\	e	2G/	e	2cc\	e
!	!	!LO:SIC:v:t=custos F	!	!	!	!	!	!	!
!	!	!LB	!	!	!	!	!	!	!
=18-	=18-	=18-	=18-	=18-	=18-	=18-	=18-	=18-	=18-
2FFny/	del	2.F/	del	2c\	del	1A	del	1.a	del
2FF/	mio	.	.	2c\	mio	.	.	.	.
.	.	4F/	mio	.	.	.	.	.	.
1.AA	meſ-	2E/	meſ-	1.A	meſ-	2c#X/	mio	.	.
.	.	2E/	-to	.	.	1c#/	meſ-	2a\	mio
=19-	=19-	=19-	=19-	=19-	=19-	=19-	=19-	=19-	=19-
.	.	1E	can-	.	.	.	.	2a\	meſ-
2AA/	-to	.	.	2A/	-to	2c#X/	-to	2e/	-to
1D	can-	1D	-to	1A	can-	1.d	can-	1f#X	can-
=20-	=20-	=20-	=20-	=20-	=20-	=20-	=20-	=20-	=20-
1GG	-to	4r	.	4G/	-to	.	.	1g	-to
.	.	4d\	S'v-	4B-\	S'v-	.	.	.	.
.	.	4d\	di in-	4B-\	di in-	2G/	-to	.	.
.	.	4.d\	-tor-	4.B-\	-tor-	.	.	.	.
2r	.	.	.	.	.	2r	.	1r	.
.	.	8c\	-no	8A/	-no	.	.	.	.
.	.	4B-\	ſo-	4G/	ſo-	.	.	.	.
4r	.	2A/	-nar	2F/	-nar	4r	.	.	.
4D/	S'v-	.	.	.	.	4d\	S'v-	.	.
!	!	!	!	!LO:SIC:v:t=custos F	!	!	!	!	!
!	!	!	!	!LB	!	!	!	!	!
=21-	=21-	=21-	=21-	=21-	=21-	=21-	=21-	=21-	=21-
4D/	di in-	4r	.	2F/	boſ-	2d\	di in-	1r	.
4.D/	-tor-	4A/	boſ-	.	.	.	.	.	.
.	.	4F/	chi an-	4A/	chi an-	2d\	-ter-	.	.
8C/	-no	.	.	.	.	.	.	.	.
4BB-/	ſo-	4D/	tri e	4d\	tri e	.	.	.	.
2AA/	-nar	2A/	col-	2c#X\	col-	4e\	-no	4r	.
.	.	.	.	.	.	4e\	ſo-	4a\	S'v-
4r	.	2D/	-li	2d\	-li	2fny\	-nar	4a\	di in-
4A\	boſ-	.	.	.	.	.	.	4.a\	-tor-
=22-	=22-	=22-	=22-	=22-	=22-	=22-	=22-	=22-	=22-
4F\	chi an-	2r	.	1r	.	4r	.	.	.
.	.	.	.	.	.	.	.	8g/	-no
!	!	!	!	!	!	!LO:SIC:v:t=custos d	!	!	!
!	!	!	!	!	!	!LB	!	!	!
4D\	tri e	.	.	.	.	4d\	boſ-	4fny/	ſo-
!	!	!	!	!	!	!	!	!LO:SIC:v:t=custos e	!
!	!	!	!	!	!	!	!	!LB	!
2A\	col-	4r	.	.	.	4c#X/	chi an-	4e/	-nas
.	.	2A/	boſ-	.	.	4c#/	tri e	4a\	boſ-
!LO:SIC:v:t=custos D	!	!	!	!	!	!	!	!	!
!LB	!	!	!	!	!	!	!	!	!
2D/	-li	.	.	4r	.	2d\	dol-	4f/	chi an-
!	!	!LO:SIC:v:t=custos D	!	!	!	!	!	!	!
!	!	!LB	!	!	!	!	!	!	!
.	.	4F/	chi an-	2A/	boſ-	.	.	4d/	tri e
4r	.	4D/	tri e	.	.	4d\	-li	2dd\	col-
*	*if	*	*	*	*	*	*ij	*	*
4G\	boſ-	4.d\	col-	2B-\	chi an-	4d\	boſ-	.	.
=23-	=23-	=23-	=23-	=23-	=23-	=23-	=23-	=23-	=23-
4E-X\	chi an-	.	.	.	.	4e-X\	chi an-	1g	-li
.	.	8c\	.	.	.	.	.	.	.
4C/	tri e	2c\	.	4cny\	tri e	4e-\	tri e	.	.
2G\	col-	.	.	4d\	col-	2d\	col-	.	.
!	!	!LO:N:acc=#	!	!	!	!	!	!	!
.	.	4Bn\	.	4G/	-li	.	.	.	.
2C/	-li	2c\	-li	2r	.	2cny\	-li	2r	.
*	*Xij	*	*	*	*	*	*xij	*	*
2C/	e	2c\	e	2E/	e	2G/	e	2cc\	e
=24-	=24-	=24-	=24-	=24-	=24-	=24-	=24-	=24-	=24-
2FF/	del	2c\	del	2.F/	del	1A	del	1.a	del
2FF/	mio	2c\	mio	.	.	.	.	.	.
.	.	.	.	4F/	mio	.	.	.	.
1.AA	meſ-	1.A	meſ-	2E/	meſ-	2c#X/	mio	.	.
.	.	.	.	2E/	-to	1c#/	meſ-	2a\	mio
=25-	=25-	=25-	=25-	=25-	=25-	=25-	=25-	=25-	=25-
.	.	.	.	1E	can-	.	.	2a\	meſ-
2AA/	-to	2A/	-to	.	.	2c#X/	-to	2e/	-to
1D	can-	1A	can-	1D	-to	1.d	can-	1f#X	can-
=26-	=26-	=26-	=26-	=26-	=26-	=26-	=26-	=26-	=26-
1GG	-to	4G/	-to	4r	.	.	.	1g	-to
.	.	4B-y\	s'v-	4d\	s'v-	.	.	.	.
!	!	!	!	!LO:SIC:v:t=custos d	!	!	!	!	!
!	!	!	!	!LB	!	!	!	!	!
.	.	4B-\	di in-	4d\	di in-	2G/	-to	.	.
.	.	4.B-\	-tor-	4.d\	-tor-	.	.	.	.
2r	.	.	.	.	.	2r	.	1r	.
.	.	8A/	-no	8c\	-no	.	.	.	.
.	.	4G/	ſo-	4B-\	ſo-	.	.	.	.
4r	.	2F/	-nar	2A/	-nar	4r	.	.	.
4D/	s'v-	.	.	.	.	4d\	s'v-	.	.
!	!	!LO:SIC:v:t=custos F	!	!	!	!	!	!	!
!	!	!LB	!	!	!	!	!	!	!
=27-	=27-	=27-	=27-	=27-	=27-	=27-	=27-	=27-	=27-
4D/	di in-	2F/	boſ-	4r	.	2d\	di in-	1r	.
4.D/	-tor-	.	.	4A/	boſ-	.	.	.	.
!	!	!	!	!	!	!LO:SIC:v:t=custos d	!	!	!
!	!	!	!	!	!	!LB	!	!	!
.	.	4A/	chi an-	4F/	chi an-	2d\	-tor-	.	.
8C/	-no	.	.	.	.	.	.	.	.
4BB-/	ſo-	4d\	tri e	4D/	tri e	.	.	.	.
!LO:SIC:v:t=custos AA	!	!	!	!	!	!	!	!	!
!LB	!	!	!	!	!	!	!	!	!
2AA/	-nar	2c#X\	col-	2A/	col-	4eny\	-no	4r	.
.	.	.	.	.	.	4e\	ſo-	4a\	s'v-
4r	.	2d\	-li	2D/	-li	2f\	-nar	4a\	di in-
4A\	boſ-	.	.	.	.	.	.	4.a\	-tor-
=28-	=28-	=28-	=28-	=28-	=28-	=28-	=28-	=28-	=28-
4F\	chi an-	1r	.	2r	.	4r	.	.	.
.	.	.	.	.	.	.	.	8g/	-no
4D/	tri e	.	.	.	.	4d\	S'v-	4fny/	ſo-
!	!	!	!	!	!	!	!	!LO:SIC:v:t=custos e	!
!	!	!	!	!	!	!	!	!LB	!
2A\	col-	.	.	4r	.	2c#X/	di in-	4e/	-nas
.	.	.	.	4A/	S'v-	.	.	4a\	boſ-
2D/	-li	4r	.	4A/	di in-	4.d\	-tor-	4f/	chi an-
.	.	4d\	S'v-	4.A/	-tor-	.	.	4d/	tri e
.	.	.	.	.	.	8e\	.	.	.
*	*ij	*	*	*	*	*	*	*	*
2D/	boſ-	4d\	di in-	.	.	4f\	.	2a\	col-
.	.	.	.	8G/	-no	.	.	.	.
.	.	4.d\	-tor-	4F/	ſo-	4d\	-no	.	.
=29-	=29-	=29-	=29-	=29-	=29-	=29-	=29-	=29-	=29-
4BB-/	chi an-	.	.	2B-\	-nar	4f\	ſo-	2d/	-li
.	.	8cny\	-no	.	.	.	.	.	.
4GG/	tri e	4B-\	ſo-	.	.	2g\	-nad	.	.
2D/	col-	2A/	-nar	4r	.	.	.	4r	.
.	.	.	.	4d\	bo-	4f#X\	ſo-	4dd\	S'v-
!	!	!	!	!LO:SIC:v:t=custos B-	!	!	!	!	!
!	!	!	!	!LB	!	!	!	!	!
2GG/	-li	4r	.	4B-\	ſchi an-	4.g\	-nar	4dd\	di in-
*	*Xij	*	*	*	*	*	*	*	*
.	.	4d\	boſ-	4G/	tri e	.	.	4.dd\	-tor-
.	.	.	.	.	.	8d\	boſ-	.	.
2r	.	4B-\	chi an-	2d\	col-	4fny\	chi an-	.	.
.	.	.	.	.	.	.	.	8cc\	-no
.	.	4G/	tri e	.	.	4g\	tri e	4b-y\	ſo-
=30-	=30-	=30-	=30-	=30-	=30-	=30-	=30-	=30-	=30-
2r	.	2d\	col-	2D/	-li	2f#X\	col-	4a\	-nar
.	.	.	.	.	.	.	.	4dd\	boſ-
!	!	!	!	!	!	!LO:SIC:v:t=custos g	!	!	!
!	!	!	!	!	!	!LB	!	!	!
4r	.	4G/	-li	2r	.	4g\	-li	4b-\	chi an-
4G\	S'v-	4B-\	s'v-	.	.	4d\	s'v-	4g/	tri e
!	!	!LO:SIC:v:t=custos B-	!	!	!	!	!	!	!
!	!	!LB	!	!	!	!	!	!	!
4G\	di in-	4B-\	di in-	1r	.	4d\	di in-	2dd\	col-
4.G\	-tor-	4.B-\	-tor-	.	.	4.d\	-tor-	.	.
.	.	.	.	.	.	.	.	2g/	-li
8F\	-no	8A/	-no	.	.	8d\	-no	.	.
4E-X\	ſo-	4G/	ſo-	.	.	4cny/	ſo-	.	.
!LO:SIC:v:t=custos D	!	!	!	!	!	!	!	!	!
!LB	!	!	!	!	!	!	!	!	!
=31-	=31-	=31-	=31-	=31-	=31-	=31-	=31-	=31-	=31-
1D	-nar	2A/	-nar	4r	.	4d\	-nar	4r	.
*	*	*	*	*	*	*	*ij	*	*
.	.	.	.	4d\	s'v-	4fny\	s'v-	4a\	s'v-
!	!	!	!	!	!	!	!	!LO:SIC:v:t=custos a	!
!	!	!	!	!	!	!	!	!LB	!
.	.	4r	.	4d\	di in-	4f\	di in-	4a\	di in-
*	*	*	*ij	*	*	*	*	*	*
.	.	4D/	s'v-	4.d\	-tor-	4.f\	-tor-	4.a\	-tor-
1r	.	4D/	di in-	.	.	.	.	.	.
.	.	.	.	8c\	-no	8e\	-no	8a\	-no
.	.	4.d\	-tor-	4B-\	ſo-	4d\	ſo-	4g/	ſo-
.	.	.	.	4A/	-nar	4e\	-nar	2a\	-nar
*	*	*	*	*	*	*	*Xij	*	*
.	.	8c#X\	-no	.	.	.	.	.	.
.	.	4c#\	ſo-	4A/	boſ-	4e\	boſ-	.	.
=32-	=32-	=32-	=32-	=32-	=32-	=32-	=32-	=32-	=32-
2r	.	2d\	-nar	4F/	chi an-	2.f\	chi an-	4r	.
*	*	*	*Xij	*	*	*	*	*	*
.	.	.	.	4D/	tri e	.	.	2a\	boſ-
2D/	boſ-	4r	.	2A/	col-	.	.	.	.
.	.	4A/	boſ-	.	.	4d\	tri e	4.f/	chi an-
4BB-/	chi an-	4B-\	chi an-	0.D	-li.	1d	col-	.	.
.	.	.	.	.	.	.	.	8d/	tri e
4GG/	tri e	4B-\	tri e	.	.	.	.	4.g/	col-
2D/	col-	2A/	col-	.	.	.	.	.	.
.	.	.	.	.	.	.	.	8f#X/	.
.	.	.	.	.	.	.	.	4f#/	.
=33-	=33-	=33-	=33-	=33-	=33-	=33-	=33-	=33-	=33-
!	!	!	!	!	!	!LO:N:acc=#	!	!	!
0GG	-li.	0G	-li.	.	.	0Bn	-li.	0g	-li.
=-	=-	=-	=-	=-	=-	=-	=-	=-	=-
*-	*-	*-	*-	*-	*-	*-	*-	*-	*-
!!!system-decoration: [(s1,s2,s3,s4,s5)]
!!!ENC: Mateusz Solarz
!!!END: 2022-07-07
!!!ENC: Urszula Świątek
!!!END: 2022-07-28
